public/img/psychology/b21-4.svg

<?xml version="1.0" encoding="UTF-8"?> <svg xmlns="http://www.w3.org/2000/svg" width="144" height="144" viewBox="0 0 144 144" fill="none"> <path d="M102.118 41.2574L101.841 42.1589L102.743 41.8821C105.669 40.9837 108.778 40.5 112 40.5C129.397 40.5 143.5 54.603 143.5 72C143.5 89.397 129.397 103.5 112 103.5C108.778 103.5 105.669 103.016 102.743 102.118L101.841 101.841L102.118 102.743C103.016 105.669 103.5 108.778 103.5 112C103.5 129.397 89.397 143.5 72 143.5C54.603 143.5 40.5 129.397 40.5 112C40.5 108.778 40.9837 105.669 41.8821 102.743L42.1589 101.841L41.2574 102.118C38.3309 103.016 35.2224 103.5 32 103.5C14.603 103.5 0.5 89.397 0.5 72C0.5 54.603 14.603 40.5 32 40.5C35.2224 40.5 38.3309 40.9837 41.2574 41.8821L42.1589 42.1589L41.8821 41.2574C40.9837 38.3309 40.5 35.2224 40.5 32C40.5 14.603 54.603 0.5 72 0.5C89.397 0.5 103.5 14.603 103.5 32C103.5 35.2224 103.016 38.3309 102.118 41.2574Z" stroke="#27B783"></path> <path fill-rule="evenodd" clip-rule="evenodd" d="M71.9503 41.7865C55.4327 41.8237 41.9597 55.1464 41.7875 71.7102C41.6062 88.4052 55.0072 102.09 71.7035 102.264C88.3985 102.438 102.084 89.0442 102.265 72.3415C102.439 55.6465 89.0375 41.9614 72.3425 41.7878C72.2119 41.7863 72.0818 41.7858 71.9517 41.7863L71.9503 41.7865ZM71.9518 42.5037C72.0789 42.5032 72.206 42.5037 72.3335 42.5052C88.6415 42.6755 101.717 56.0271 101.546 72.3338C101.369 88.6482 88.018 101.717 71.71 101.546C55.402 101.376 42.3262 88.0246 42.5037 71.7179C42.6724 55.5372 55.8172 42.5387 71.9517 42.5039L71.9518 42.5037Z" fill="#27B783"></path> <path fill-rule="evenodd" clip-rule="evenodd" d="M82.4302 60.7168C82.3499 60.7168 82.2715 60.7444 82.2077 60.7946L76.5637 65.1405H76.5642C76.4768 65.2073 76.4256 65.3107 76.4246 65.4207C76.4231 65.5307 76.4723 65.6347 76.5582 65.704L82.1089 70.1719V70.1713C82.1822 70.2346 82.2786 70.2653 82.3751 70.2562C82.472 70.2477 82.5609 70.2 82.6217 70.1241C82.6824 70.0488 82.7101 69.9514 82.698 69.8555C82.6859 69.759 82.6357 69.6716 82.5584 69.6134L77.3623 65.4313L82.6453 61.3632L82.6458 61.3627C82.7693 61.2703 82.8201 61.1091 82.7714 60.9624C82.7221 60.8158 82.585 60.7168 82.4303 60.7168L82.4302 60.7168Z" fill="#27B783"></path> <path fill-rule="evenodd" clip-rule="evenodd" d="M61.8445 60.502C61.6923 60.5035 61.5572 60.6009 61.5085 60.7451C61.4593 60.8892 61.507 61.0489 61.627 61.1428L66.8231 65.3249L61.5401 69.393H61.5396C61.4643 69.4513 61.4151 69.5366 61.403 69.6311C61.3905 69.7255 61.4161 69.8209 61.4743 69.8962C61.5321 69.9716 61.618 70.0208 61.7119 70.0329C61.8063 70.0454 61.9017 70.0193 61.9771 69.9615L67.6211 65.6157C67.708 65.5484 67.7597 65.4454 67.7607 65.3354C67.7617 65.2255 67.7125 65.121 67.6271 65.0522L62.0764 60.5843C62.0111 60.5306 61.9293 60.5015 61.8444 60.502L61.8445 60.502Z" fill="#27B783"></path> <path fill-rule="evenodd" clip-rule="evenodd" d="M64.0586 76.218C62.0984 76.1944 60.4717 77.789 60.4546 79.7492V79.7497C60.4315 81.7089 62.0201 83.3362 63.9858 83.3598H63.9863L79.8212 83.5245L79.8217 83.525H79.8222C81.7813 83.5411 83.4087 81.954 83.4322 79.9938C83.4483 78.0281 81.8593 76.4073 79.8939 76.3838H79.8934L64.0598 76.219H64.0593L64.0586 76.218ZM64.0505 76.9352H64.05H64.051L79.8846 77.0999H79.8851C81.4617 77.1195 82.7263 78.4093 82.7147 79.9857C82.6946 81.5531 81.3969 82.8193 79.8284 82.8072H79.8274L63.9938 82.6425H63.9933C62.4173 82.6229 61.1522 81.3252 61.1713 79.7567C61.1839 78.1893 62.4821 76.9161 64.0497 76.9357L64.0505 76.9352Z" fill="#27B783"></path> </svg>

<svg xmlns="http://www.w3.org/2000/svg" width="144" height="144" fill="none"><path d="M102.118 41.257l-.277.902.902-.277A31.492 31.492 0 01112 40.5c17.397 0 31.5 14.103 31.5 31.5s-14.103 31.5-31.5 31.5c-3.222 0-6.331-.484-9.257-1.382l-.902-.277.277.902A31.505 31.505 0 01103.5 112c0 17.397-14.103 31.5-31.5 31.5S40.5 129.397 40.5 112c0-3.222.484-6.331 1.382-9.257l.277-.902-.902.277A31.509 31.509 0 0132 103.5C14.603 103.5.5 89.397.5 72S14.603 40.5 32 40.5c3.222 0 6.33.484 9.257 1.382l.902.277-.277-.902A31.495 31.495 0 0140.5 32C40.5 14.603 54.603.5 72 .5s31.5 14.103 31.5 31.5c0 3.222-.484 6.33-1.382 9.257z" stroke="#27B783"/><path fill-rule="evenodd" clip-rule="evenodd" d="M71.95 41.786c-16.517.038-29.99 13.36-30.163 29.924-.18 16.695 13.22 30.38 29.917 30.554 16.695.174 30.38-13.22 30.561-29.922.174-16.695-13.228-30.38-29.922-30.554-.131-.002-.261-.002-.391-.002h-.002zm.002.718l.382.001c16.307.17 29.383 13.522 29.212 29.829-.177 16.314-13.528 29.383-29.836 29.212-16.308-.17-29.384-13.521-29.206-29.828.168-16.18 13.313-29.18 29.448-29.214z" fill="#27B783"/><path fill-rule="evenodd" clip-rule="evenodd" d="M82.43 60.717a.36.36 0 00-.222.078l-5.644 4.346a.357.357 0 00-.006.563l5.55 4.468a.357.357 0 00.514-.048.358.358 0 00-.064-.51l-5.196-4.183 5.283-4.068a.359.359 0 00-.215-.646zm-20.586-.215a.358.358 0 00-.217.64l5.196 4.183-5.283 4.068a.359.359 0 00.437.569l5.644-4.346a.359.359 0 00.006-.564l-5.55-4.468a.361.361 0 00-.233-.082zm2.215 15.716a3.577 3.577 0 00-3.604 3.531 3.583 3.583 0 003.53 3.61h.001l15.835.166h.001c1.96.016 3.587-1.571 3.61-3.531a3.59 3.59 0 00-3.538-3.61l-15.834-.165-.001-.001zm-.008.717h-.001.001l15.834.165a2.865 2.865 0 012.83 2.886 2.87 2.87 0 01-2.887 2.821l-15.834-.165a2.853 2.853 0 01.056-5.707z" fill="#27B783"/></svg>
